src/assets/icons/how-to-keep-others-safe/child-care.svg

<?xml version="1.0" encoding="UTF-8"?>
<svg width="48px" height="48px" viewBox="0 0 48 48" version="1.1" xmlns="http://www.w3.org/2000/svg" xmlns:xlink="http://www.w3.org/1999/xlink">
    <title>health-advice/child-care</title>
    <defs>
        <polygon id="path-1" points="0.0002 0 48 0 48 48 0.0002 48"></polygon>
        <polygon id="path-3" points="0 48 48 48 48 0 0 0"></polygon>
    </defs>
    <g id="NY-App" stroke="none" stroke-width="1" fill="none" fill-rule="evenodd">
        <g id="keep-safe" transform="translate(-20.000000, -1086.000000)">
            <g id="health-advice/child-care" transform="translate(20.000000, 1086.000000)">
                <g id="Group-3">
                    <mask id="mask-2" fill="white">
                        <use xlink:href="#path-1"></use>
                    </mask>
                    <g id="Clip-2"></g>
                    <path d="M43.0322,48 L4.9682,48 C2.2242,48 0.0002,45.776 0.0002,43.032 L0.0002,4.968 C0.0002,2.224 2.2242,0 4.9682,0 L43.0322,0 C45.7762,0 48.0002,2.224 48.0002,4.968 L48.0002,43.032 C48.0002,45.776 45.7762,48 43.0322,48" id="Fill-1" fill="#483066" mask="url(#mask-2)"></path>
                </g>
                <path d="M10.2245,30.5717 C10.2245,31.5077 10.9835,32.2667 11.9195,32.2667 C12.8565,32.2667 13.6155,31.5077 13.6155,30.5717 L13.6515,16.6677 C10.2245,16.6677 10.2245,20.5277 10.2245,20.5277 L10.2245,30.5717 Z" id="Fill-4" fill="#FFFFFE"></path>
                <path d="M9.497,30.5717 C9.497,31.5077 8.738,32.2667 7.802,32.2667 C6.865,32.2667 6.105,31.5077 6.105,30.5717 L6.07,16.6677 C9.497,16.6677 9.497,20.5277 9.497,20.5277 L9.497,30.5717 Z" id="Fill-6" fill="#FFFFFE"></path>
                <path d="M4.0981,21.8359 C3.3201,21.8359 2.6901,21.2059 2.6901,20.4279 C2.6901,13.0009 4.8331,9.1429 4.9241,8.9819 C5.3081,8.3069 6.1681,8.0699 6.8441,8.4539 C7.5181,8.8369 7.7551,9.6929 7.3761,10.3679 C7.3421,10.4289 5.5061,13.8449 5.5061,20.4279 C5.5061,21.2059 4.8751,21.8359 4.0981,21.8359" id="Fill-8" fill="#FFFFFE"></path>
                <path d="M12.8134,4.7036 C12.9854,6.3336 11.8034,7.7976 10.1714,7.9676 C8.5414,8.1386 7.0814,6.9556 6.9084,5.3266 C6.7374,3.6936 7.9204,2.2346 9.5504,2.0626 C11.1824,1.8906 12.6424,3.0746 12.8134,4.7036" id="Fill-10" fill="#FFFFFE"></path>
                <path d="M6.0522,8.27 L6.0522,16.635 C6.0522,18.727 7.7482,20.425 9.8422,20.425 C11.9352,20.425 13.6332,18.727 13.6332,16.635 L13.6332,8.27 L6.0522,8.27 Z" id="Fill-12" fill="#FFFFFE"></path>
                <path d="M15.5048,21.8359 C16.2828,21.8359 16.9128,21.2059 16.9128,20.4279 C16.9128,13.0009 14.7698,9.1429 14.6788,8.9819 C14.2948,8.3069 13.4348,8.0699 12.7588,8.4539 C12.0848,8.8369 11.8468,9.6929 12.2268,10.3679 C12.2598,10.4289 14.0968,13.8449 14.0968,20.4279 C14.0968,21.2059 14.7268,21.8359 15.5048,21.8359" id="Fill-14" fill="#FFFFFE"></path>
                <path d="M39.2724,23.4799 C43.7764,23.0089 47.0424,18.9689 46.5664,14.4669 C46.0944,9.9689 42.0624,6.7009 37.5574,7.1749 C33.0564,7.6489 29.7914,11.6789 30.2634,16.1879 C30.7384,20.6849 34.7714,23.9499 39.2724,23.4799" id="Fill-16" fill="#FFFFFE"></path>
                <path d="M43.662,30.7241 C42.774,30.7871 41.355,30.8661 39.146,31.7461 C36.936,32.6281 34.043,34.4891 32.677,34.6801 C32.601,33.3081 33.406,30.7211 35.678,29.6011 C37.306,28.8001 40.014,29.7761 40.981,30.1801 C42.151,29.9111 43.069,29.8171 43.408,29.7651 C43.958,29.6811 44.106,30.4911 43.662,30.7241 L43.662,30.7241 Z M31.705,31.2231 C30.276,31.2231 29.113,30.0591 29.113,28.6301 C29.113,27.2001 30.276,26.0381 31.705,26.0381 C33.135,26.0381 34.297,27.2001 34.297,28.6301 C34.297,30.0591 33.135,31.2231 31.705,31.2231 L31.705,31.2231 Z M46.072,24.9261 L29.747,24.9261 C29.226,24.8651 28.717,25.0091 28.247,25.2721 C27.551,25.5541 26.251,26.2961 26.002,28.0161 C25.878,28.8661 25.767,29.7931 25.718,30.6391 C28.245,30.2061 30.248,31.4551 31.134,33.0961 C32.104,34.8911 31.753,37.9881 30.329,39.1441 C31.361,38.9991 31.974,39.0371 32.93,39.3291 C34.207,39.7211 34.458,41.2421 34.535,41.2252414 C38.586,40.3451 42.789,37.5791 44.308,36.5071 C45.847,35.4201 46.212,33.2911 45.126,31.7541 C45.124,31.7511 45.122,31.7491 45.12,31.7461 L46.218,31.7461 L46.072,24.9261 Z" id="Fill-18" fill="#FFFFFE"></path>
                <path d="M39.0932,40.8208 C37.8432,41.4458 36.4842,41.9808 34.9342,42.2518 C34.8802,42.2608 36.3722,46.2448 36.4392,46.2448 C39.1462,46.2568 41.0542,46.2448 43.0852,46.2448 C44.6412,46.2448 46.1822,44.6628 46.1822,43.3118 C46.1822,41.4948 46.2482,35.9548 45.9452,36.3158 C44.5742,37.9478 41.5882,39.5728 39.0932,40.8208" id="Fill-20" fill="#FFFFFE"></path>
                <path d="M37.8984,31.1753 C36.6484,31.6793 35.1384,32.4833 34.0664,33.0753 C33.9914,33.1163 34.3324,31.2453 36.1154,30.3883 C37.7504,29.6033 39.7514,30.5533 39.6804,30.5743 C39.0974,30.7493 38.4644,30.9463 37.8984,31.1753" id="Fill-22" fill="#FFFFFE"></path>
                <path d="M33.4037,28.6401 C33.4037,29.5761 32.6457,30.3341 31.7097,30.3341 C30.7747,30.3341 30.0157,29.5761 30.0157,28.6401 C30.0157,27.7041 30.7747,26.9461 31.7097,26.9461 C32.6457,26.9461 33.4037,27.7041 33.4037,28.6401" id="Fill-24" fill="#FFFFFE"></path>
                <path d="M30.7675,35.1289 C31.0035,37.3669 29.3795,39.3759 27.1405,39.6099 C24.9015,39.8439 22.8965,38.2209 22.6595,35.9839 C22.4245,33.7419 24.0485,31.7379 26.2875,31.5029 C28.5275,31.2669 30.5325,32.8919 30.7675,35.1289" id="Fill-26" fill="#FFFFFE"></path>
                <mask id="mask-4" fill="white">
                    <use xlink:href="#path-3"></use>
                </mask>
                <g id="Clip-29"></g>
                <polygon id="Fill-28" fill="#FFFFFE" mask="url(#mask-4)" points="22.062 46.245 31.893 46.245 31.893 40.025 22.062 40.025"></polygon>
                <path d="M35.2338,46.2446 C34.3958,42.8196 33.3998,41.1296 33.3278,41.0036 C32.8008,40.0756 31.6198,39.7506 30.6918,40.2776 C29.7658,40.8036 29.4408,41.9786 29.9618,42.9056 C29.9838,42.9476 30.6028,44.0156 31.2278,46.2446 L35.2338,46.2446 Z" id="Fill-30" fill="#FFFFFE" mask="url(#mask-4)"></path>
                <line x1="19.7328" y1="46.25" x2="19.7448" y2="44.75" id="Stroke-31" stroke="#FFFFFE" stroke-width="1.5" mask="url(#mask-4)"></line>
                <line x1="19.7607" y1="42.7739" x2="20.0707" y2="4.2379" id="Stroke-32" stroke="#FFFFFE" stroke-width="1.5" stroke-dasharray="2.964,1.976" mask="url(#mask-4)"></line>
                <line x1="20.0786" y1="3.25" x2="20.0906" y2="1.75" id="Stroke-33" stroke="#FFFFFE" stroke-width="1.5" mask="url(#mask-4)"></line>
            </g>
        </g>
    </g>
</svg>

<svg width="48" height="48" xmlns="http://www.w3.org/2000/svg" xmlns:xlink="http://www.w3.org/1999/xlink"><defs><path id="a" d="M0 0h48v48H0z"/><path id="c" d="M0 48h48V0H0z"/></defs><g fill="none" fill-rule="evenodd"><mask id="b" fill="#fff"><use xlink:href="#a"/></mask><path d="M43.032 48H4.968A4.968 4.968 0 010 43.032V4.968A4.968 4.968 0 014.968 0h38.064A4.968 4.968 0 0148 4.968v38.064A4.968 4.968 0 0143.032 48" fill="#483066" mask="url(#b)"/><path d="M10.225 30.572a1.695 1.695 0 003.39 0l.037-13.904c-3.427 0-3.427 3.86-3.427 3.86v10.044zM9.497 30.572a1.695 1.695 0 01-3.392 0L6.07 16.668c3.427 0 3.427 3.86 3.427 3.86v10.044z" fill="#FFFFFE"/><path d="M4.098 21.836c-.778 0-1.408-.63-1.408-1.408C2.69 13 4.833 9.143 4.924 8.982a1.41 1.41 0 012.452 1.386c-.034.06-1.87 3.477-1.87 10.06 0 .778-.63 1.408-1.408 1.408M12.813 4.704a2.968 2.968 0 11-5.905.623 2.97 2.97 0 015.905-.623" fill="#FFFFFE"/><path d="M6.052 8.27v8.365a3.79 3.79 0 007.581 0V8.27h-7.58z" fill="#FFFFFE"/><path d="M15.505 21.836c.778 0 1.408-.63 1.408-1.408 0-7.427-2.143-11.285-2.234-11.446a1.41 1.41 0 00-2.452 1.386c.033.06 1.87 3.477 1.87 10.06 0 .778.63 1.408 1.408 1.408M39.272 23.48c4.504-.471 7.77-4.511 7.294-9.013a8.195 8.195 0 00-9.009-7.292 8.198 8.198 0 00-7.294 9.013c.475 4.497 4.508 7.762 9.01 7.292M43.662 30.724c-.888.063-2.307.142-4.516 1.022-2.21.882-5.103 2.743-6.469 2.934-.076-1.372.729-3.959 3.001-5.079 1.628-.8 4.336.175 5.303.58 1.17-.27 2.088-.364 2.427-.416.55-.084.698.726.254.96zm-11.957.5a2.596 2.596 0 01-2.592-2.594 2.595 2.595 0 012.592-2.592 2.594 2.594 0 012.592 2.592 2.595 2.595 0 01-2.592 2.593zm14.367-6.298H29.747c-.521-.06-1.03.083-1.5.346-.696.282-1.996 1.024-2.245 2.744-.124.85-.235 1.777-.284 2.623 2.527-.433 4.53.816 5.416 2.457.97 1.795.619 4.892-.805 6.048 1.032-.145 1.645-.107 2.601.185 1.277.392 1.528 1.913 1.605 1.896 4.051-.88 8.254-3.646 9.773-4.718a3.41 3.41 0 00.818-4.753l-.006-.008h1.098l-.146-6.82zM39.093 40.82c-1.25.626-2.609 1.16-4.159 1.432-.054.009 1.438 3.993 1.505 3.993 2.707.012 4.615 0 6.646 0 1.556 0 3.097-1.582 3.097-2.933 0-1.817.066-7.357-.237-6.996-1.37 1.632-4.357 3.257-6.852 4.505" fill="#FFFFFE"/><path d="M37.898 31.175c-1.25.504-2.76 1.308-3.832 1.9-.075.041.266-1.83 2.05-2.687 1.634-.785 3.635.165 3.564.186-.583.175-1.216.372-1.782.601M33.404 28.64a1.693 1.693 0 11-3.387.001 1.693 1.693 0 013.387 0M30.767 35.129a4.076 4.076 0 11-8.106.855 4.076 4.076 0 018.106-.855" fill="#FFFFFE"/><mask id="d" fill="#fff"><use xlink:href="#c"/></mask><path fill="#FFFFFE" mask="url(#d)" d="M22.062 46.245h9.831v-6.22h-9.831z"/><path d="M35.234 46.245c-.838-3.425-1.834-5.115-1.906-5.241a1.934 1.934 0 00-3.366 1.902c.022.042.64 1.11 1.266 3.339h4.006z" fill="#FFFFFE" mask="url(#d)"/><path stroke="#FFFFFE" stroke-width="1.5" mask="url(#d)" d="M19.733 46.25l.012-1.5"/><path stroke="#FFFFFE" stroke-width="1.5" stroke-dasharray="2.964,1.976" mask="url(#d)" d="M19.761 42.774l.31-38.536"/><path stroke="#FFFFFE" stroke-width="1.5" mask="url(#d)" d="M20.079 3.25l.012-1.5"/></g></svg>
